X:21
T:The Unfortunate Dog
T:(Dog S___ A Rye Straw)
M:2/4
L:1/16
Z:jason
B: Bob Walters, 1950
K:A
"The dog suffering . . . "[AA][AF] |:[A2E2][AE][AA] [A2F2][AF][AA] | [A2E2][AA][AE] [AF][AE][AD][AF] | [A2E2][AA]A [A2F2]A2 | ABdf edcA |
[A2E2][AE][AA] [A2F2][AF][AA] | [A2E2][AA][AE] [AF][AE][AD][AF] | [A2E2][AA]A [A2F2][A2] | dfed [ec][eA][e2A2] ||
"The dog howling as he strains . . ."c[e2e2]f e2c2 | d2e2 fdfd | [e2e2]ef e2ef | =gfed [ec][eA][e2A2] |
c[e2e2]f e2c2 | d2e2 fefg | abaf =gfec | dfed [ec][eA][e2A2] ||
"The dog running from the fruits of his la/bor"[E2A,2][E2A,2] [c2E2][c2E2] | [E2A,2][E2A,2][c3E3][cE] | [E2A,2][E2A,2] [c2E2][c2E2] | dfed cAEC |
[E2A,2][E2A,2] [c2E2][c2E2] | [E2A,2][E2A,2][c3E3][cE] | [E2A,2][E2A,2] [c2E2][c2E2] | dfed cBAF :|

